SVG/cc-diners-club.svg

<?xml version="1.0" encoding="utf-8"?>
<!-- Generated by IcoMoon.io -->
<!DOCTYPE svg PUBLIC "-//W3C//DTD SVG 1.1//EN" "http://www.w3.org/Graphics/SVG/1.1/DTD/svg11.dtd">
<svg version="1.1" xmlns="http://www.w3.org/2000/svg" xmlns:xlink="http://www.w3.org/1999/xlink" width="18" height="14" viewBox="0 0 18 14">
<path fill="#444444" d="M6.703 9.695v-5.414q-0.828 0.32-1.344 1.059t-0.516 1.652 0.516 1.652 1.344 1.051zM10.641 6.992q0-0.914-0.516-1.652t-1.344-1.059v5.422q0.828-0.32 1.344-1.059t0.516-1.652zM12.32 6.992q0 1.242-0.613 2.297t-1.668 1.668-2.297 0.613q-0.93 0-1.777-0.363t-1.461-0.977-0.977-1.461-0.363-1.777q0-1.242 0.613-2.297t1.668-1.668 2.297-0.613 2.297 0.613 1.668 1.668 0.613 2.297zM15.313 7.047q0-1.086-0.434-2.043t-1.152-1.605-1.668-1.023-1.973-0.375h-2.352q-1.375 0-2.527 0.633t-1.836 1.797-0.684 2.617q0 1.336 0.68 2.48t1.844 1.809 2.523 0.664h2.352q1.008 0 1.965-0.395t1.676-1.055 1.152-1.582 0.434-1.922zM18 2v10q0 0.406-0.297 0.703t-0.703 0.297h-16q-0.406 0-0.703-0.297t-0.297-0.703v-10q0-0.406 0.297-0.703t0.703-0.297h16q0.406 0 0.703 0.297t0.297 0.703z"></path>
</svg>

<svg xmlns="http://www.w3.org/2000/svg" viewBox="0 0 18 14"><path d="M6.703 9.695V4.28q-.828.32-1.344 1.06t-.517 1.652.516 1.652 1.343 1.05zm3.938-2.703q0-.914-.515-1.652T8.78 4.28v5.423q.83-.32 1.345-1.06t.516-1.65zm1.68 0q0 1.242-.613 2.297t-1.668 1.667-2.298.613q-.93 0-1.777-.363t-1.46-.977-.978-1.46-.363-1.778q0-1.242.613-2.297t1.668-1.668 2.297-.613 2.297.613 1.667 1.668.613 2.297zm2.993.055q0-1.086-.434-2.043T13.726 3.4 12.06 2.375 10.085 2H7.734q-1.375 0-2.527.634T3.37 4.43 2.688 7.05q0 1.336.68 2.48t1.844 1.81T7.735 12h2.352q1.008 0 1.965-.394t1.677-1.055 1.152-1.58.433-1.923zM18 2v10q0 .406-.297.703T17 13H1q-.406 0-.703-.297T0 12V2q0-.406.297-.703T1 1h16q.406 0 .703.297T18 2z" /></svg>
